X:1
T:Domine ante te
T:Domine ante te
T:Pierre Moulu
T:Source : Trium vocum cantiones---Nürnberg---J.Petreius---1541. Editor : André Vierendeels (22/05/16).
T:Secunda pars
T:Notes : Original clefs : C1, C4, F4 Editorial accidentals above the staff Original note values have been halved Square brackets indicate ligatures See also "Prima pars :Sicut malus inter ligna" (P.Moulu)
T:©
T:©
T:©
T:©
T:©
T:©
T:©
C:Pierre Moulu
Z:©
%%score [ 1 2 3 ]
L:1/8
Q:1/4=100
M:2/2
K:C
V:1 treble nm="Alto" snm="A"
V:2 treble-8 nm="Tenor" snm="T"
V:3 bass nm="Bass" snm="B"
V:1
 G8 | A4 G4 | C3 D EFGF/G/ | AG c2 BAGF | E2 G4 FE | DEFG AB c2- | c2 BA G2 A2 | D2 G3 FDE | %8
w: Do-|mi- ne|an- * * * * * *|* * te _ _ _ _|_ te, _ _|_ _ _ _ _ _ _||an- te _ _ _|
 FEDC D4 | C4 z4 | z8 | C3 D EF G2- | GFDE FG A2- | AG G4 F2 | G8- | G8 | z8 | z4 z2 G2 | %18
w: _ _ _ _ _|te,||an- * * * *|* * * * * * te|_ _ _ _|te,|||o-|
 G2 G2 c4 | B2 c3 BGA | B2 A4 GF | E3 D EFGF | GABG AB c2- | c2 BA c2 B2- | BAGF EFGF | %25
w: mne de- si-|de- * * * *|* ri- * *|um _ _ _ _ _|_ _ _ _ _ _ me-|||
 D2 E3 D F2- | FEDC B,2 E2- | ED C4 B,2 | C8- | C8 | z8 | z2 G2 c4- | c2 c2 B2 A2 | G3 A B2 c2- | %34
w: |||um,|_||et ge-|* mi- tus me-||
 cBAG AG c2- | cB/A/ B2 c4- | c4 z4 | z8 | z4 z2 G2 | A6 A2 | G4 F4 | E4 z2 G2 | G2 A2 G2 c2- | %43
w: |* * * * us,|_||et|ge- mi-|tus me-|us, ad|te non est ab-|
 cB/A/ B2 G2 A2 | DEFG ABcA | BG d3 cBA | GFED CB,/A,/ A2- | AG G4 F2 | G4 C4- | C4 z4 | z8 | z8 | %52
w: * * * scon- * *|||||* tus,|_|||
 z8 | z2 E2 E2 F2 | G2 E2 F4 | E3 F G2 A2- | AG/F/ G2 E2 F2 | D2 G3 F/E/ F2 | D2 E2 C2 F2- | %59
w: |ad te non|est ab- scon-|di- * * *|||tus, ab- scon- di-|
 FEDC DB, E2- | ED C3 B,/A,/ B,2 | C8 |] %62
w: ||tus.|
V:2
 z8 | z8 | z4 c4- | c4 d4 | c4 G3 A | Bc d4 cB | A2 c4 BA | B3 A Bc d2- | dc c4 B2 | c2 G3 ABG | %10
w: ||Do-|* mi-|ne an- *||* te _ _|_ _ _ _ _||te, an- te _ _|
 Bc d4 cB | A2 G2 z2 G2 | B3 c d2 c2- | cB G2 A4 | G8 | z4 z2 G2 | G2 G2 c4 | B2 c4 BA | G2 B2 A4 | %19
w: _ _ _ _ _|* te, an-|te _ _ _|_ _ _ _|te,|o-|mne de- si-|de- * * *|* ri- um|
 e8 | d4 c4- | c2 BA G3 A | BcdB cd e2- | e2 dc e2 d2- | dcBA G4- | G4 G2 A2- | AGFE D2 G2- | %27
w: me-||||||||
 GE F2 D4 | C4 z2 G2 | A6 A2 | B4 c3 B | cd e4 dc | f2 e3 d/c/ d2 | e4 z2 c2 | f6 f2 | e2 d2 c3 B | %36
w: |um, et|ge- mi-|tus me- *|||us, ge-|mi- tus|me- * * *|
 AG G3 F/E/ F2 | G4 z2 E2- | EFGA B2 c2- | cBAG A2 d2- | dc c3 B/A/ B2 | c8 | z4 z2 c2 | %43
w: |us, me-||||us,|ad|
 c2 d2 c2 f2- | f2 ed cdec | d3 c BA G2 | c3 B AG F2 | G4 A4 | z2 G2 G2 A2- | AB c4 BA | %50
w: te non est ab-|* scon- * * * * *||di- * * * tus|me- tus,|ab- son- di-||
 B2 d3 cBA | GABc d2 c2- | c2 B2 c4 | z2 G2 A2 A2 | G2 c3 B/A/ B2 | c6 A2 | B4 c2 A2 | B2 G2 A4 | %58
w: |* * * * tus me-|* * us,|et ge- mi-|tus me- * * *|us ad|te ab- scon-||
 G4 A3 G | F2 G3 FED | E2 F2 D4 | C8 |] %62
w: ||* * di-|tus.|
V:3
 z8 | z8 | z8 | z8 | z8 | z8 | z8 | G,8 | A,4 G,4 |"^#" C,3 D, E,F, G,2- | G,2 F,E, D,2 F,2- | %11
w: |||||||Do-|mi- ne|an- * * * te|_ _ _ _ _|
 F,2 E,D, C,4 | z2 G,2 D,2 F,2 | E,4 D,4 | G,,4 z2 G,,2 | G,,2 G,,2 C,4 | B,,2 C,3 D,E,F, | %17
w: * * * te,|an- * *|te _|te, o-|mne de- si-|de- * * * *|
 G,2 A,4 G,F, | E,D, G,3 F,/E,/ F,2 | G,2 A,3 G,E,F, | G,2 F,4 E,D, | C,8 | z8 | z4 z2 G,,2 | %24
w: |* * * * * ri-|um me- * * *||um,||o-|
 G,,2 G,,2 C,4 | B,,2 C,3 B,,A,,G,, | F,,4 G,,4 | A,,4 G,,4 | C,4 z2 C,2 | F,6 F,2 | %30
w: mne de- si-|de- ri- * * *|um me-|* um,|_ et|ge- mi-|
 E,2 D,2 C,2 F,2- | F,2 E,2 A,4- | A,4 G,2 F,2 | E,8 | z8 | G,,4 C,4- | C,2 C,2 B,,2 A,,2 | %37
w: tus me- * *|||us,||et ge-|* mi- tus me-|
 G,,3 A,, B,,2 C,2- | C,D,E,F, G,2 C,2 | F,6 F,2 | E,4 D,4 | C,8- | C,8 | z8 | z8 | z8 | z8 | %47
w: ||||us,||||||
 z2 C,2 C,2 D,2 | C,3 D, E,2 F,2- | F,2 E,D, C,2 D,2 | G,,A,,B,,C, D,2 E,2- | E,F,G,E, F,E,D,C, | %52
w: ad te non|est _ _ _|_ _ _ _ ab-|scon- * * * * *||
 D,4 C,4 | z2 C,2 C,2 D,2 | E,2 C,2 D,4 | C,3 D, E,2 F,2- | F,E,/D,/ E,2 C,2 D,2 | %57
w: di- tus,|ad te non|est ab- scon-|||
 G,,2 E,3 D,/C,/ D,2 | B,,2 C,2 A,,2 D,2- | D,C,B,,A,, G,,2 C,2- | C,2 F,,2 G,,4 | C,8 |] %62
w: * di- * * *|tus, ad te non|_ _ _ _ est ab-|* scon- di-|tus.|

